X:1
T:大提琴练习曲_Book1_P21_No.28
T:大提琴练习曲_Book1_P21_No.28
L:1/8
Q:1/4=40
M:2/4
K:Bb
V:1 bass nm="大提琴" snm="Vc."
V:1
 !tenuto!G,,/!tenuto!G,,/!tenuto!G,,/!tenuto!G,,/ !tenuto!G,,/!tenuto!G,,/!tenuto!G,,/!tenuto!G,,/ | %1
 !tenuto!G,,/!tenuto!G,,/!tenuto!B,,/!tenuto!B,,/ !tenuto!A,,/!tenuto!A,,/!tenuto!C,/!tenuto!C,/ | %2
 !tenuto!B,,/!tenuto!B,,/!tenuto!B,,/!tenuto!B,,/ !tenuto!D,/!tenuto!D,/!tenuto!D,/!tenuto!D,/ | %3
 !tenuto!G,/!tenuto!G,/!tenuto!G,/!tenuto!G,/ !tenuto!D,/!tenuto!D,/!tenuto!D,/!tenuto!D,/ | %4
 !//!!tenuto!C,2 !tenuto!C,/!tenuto!C,/!tenuto!D,/!tenuto!D,/ | %5
 !tenuto!C,/!tenuto!C,/!tenuto!C,/!tenuto!C,/ !tenuto!C,/!tenuto!C,/!tenuto!D,/!tenuto!D,/ | %6
 !tenuto!C,/!tenuto!C,/!tenuto!D,/!tenuto!D,/ !tenuto!C,/!tenuto!C,/!tenuto!B,,/!tenuto!B,,/ | %7
 !tenuto!A,,/!tenuto!A,,/!tenuto!C,/!tenuto!C,/ !tenuto!B,,/!tenuto!B,,/!tenuto!A,,/!tenuto!A,,/ | %8
 !//!!tenuto!G,,2 !//!!tenuto!G,,2 | %9
 !tenuto!G,,/!tenuto!G,,/!tenuto!B,,/!tenuto!B,,/ !tenuto!A,,/!tenuto!A,,/!tenuto!C,/!tenuto!C,/ | %10
 !//!!tenuto!B,,2 !//!!tenuto!D,2 | !//!!tenuto!G,2 !//!!tenuto!D,2 | %12
 !//!!tenuto!D,2 !tenuto!D,/!tenuto!D,/!tenuto!F,/!tenuto!F,/ | %13
 !//!!tenuto!D,2 !tenuto!D,/!tenuto!D,/!tenuto!^F,/!tenuto!F,/ | %14
 !tenuto!^F,/!tenuto!F,/!tenuto!A,/!tenuto!A,/ !tenuto!G,/!tenuto!G,/!tenuto!B,/!tenuto!B,/ | %15
 !tenuto!A,/!tenuto!A,/!tenuto!G,/!tenuto!G,/ !tenuto!D,/!tenuto!D,/!tenuto!^F,/!tenuto!F,/ | %16
 !//!!tenuto!G,2 !//!!tenuto!G,2 | %17
 !tenuto!G,/!tenuto!G,/!tenuto!B,/!tenuto!B,/ !tenuto!A,/!tenuto!A,/!tenuto!C/!tenuto!C/ | %18
 !tenuto!B,/!tenuto!B,/!tenuto!B,/!tenuto!B,/ !tenuto!G,/!tenuto!G,/!tenuto!G,/!tenuto!G,/ | %19
 !//!!tenuto!D2 !//!!tenuto!B,2 | !//!!tenuto!C2 !tenuto!C/!tenuto!C/!tenuto!B,/!tenuto!B,/ | %21
 !//!!tenuto!C2 !tenuto!C/!tenuto!C/!tenuto!A,/!tenuto!A,/ | %22
 !tenuto!C/!tenuto!C/!tenuto!D/!tenuto!D/ !tenuto!C/!tenuto!C/!tenuto!B,/!tenuto!B,/ | %23
 !tenuto!D/!tenuto!D/!tenuto!C/!tenuto!C/ !tenuto!A,/!tenuto!A,/!tenuto!B,/!tenuto!B,/ | %24
 !//!!tenuto!G,2 !//!!tenuto!G,2 | %25
 !tenuto!G,/!tenuto!G,/!tenuto!G,,/!tenuto!G,,/ !tenuto!A,,/!tenuto!A,,/!tenuto!B,,/!tenuto!B,,/ | %26
 !tenuto!C,/!tenuto!C,/!tenuto!D,/!tenuto!D,/ !tenuto!C,/!tenuto!C,/!tenuto!B,,/!tenuto!B,,/ | %27
 !tenuto!C,/!tenuto!C,/!tenuto!B,,/!tenuto!B,,/ !tenuto!G,,/!tenuto!G,,/!tenuto!B,,/!tenuto!B,,/ | %28
 !//!!tenuto!C,2 !tenuto!C,/!tenuto!C,/!tenuto!D,/!tenuto!D,/ | %29
 !//!!tenuto!C,2 !/!!tenuto!C,!/!!tenuto!F, | %30
 !tenuto!C,/!tenuto!C,/!tenuto!G,/!tenuto!G,/ !tenuto!F,/!tenuto!F,/!tenuto!E,/!tenuto!E,/ | %31
 !/!!tenuto!D,!/!!tenuto!C, !/!!tenuto!A,,!/!!tenuto!B,, | !//!!tenuto!G,,2 !//!!tenuto!G,,2 | %33
 !tenuto!G,,/!tenuto!G,,/!tenuto!D,,/!tenuto!D,,/ !/!!tenuto!G,,!/!!tenuto!D,, | %34
 !//!!tenuto!E,,2 !//!!tenuto!G,,2 | !//!!tenuto!B,,2 !//!!tenuto!E,2 | %36
 !//!!tenuto!F,2 !/!!tenuto!F,!/!!tenuto!E, | !//!!tenuto!F,2 !/!!tenuto!F,!/!!tenuto!D, | %38
 !tenuto!F,/!tenuto!F,/!tenuto!E,/!tenuto!E,/ !tenuto!E,/!tenuto!E,/!tenuto!D,/!tenuto!D,/ | %39
 !tenuto!D,/!tenuto!D,/!tenuto!C,/!tenuto!C,/ !tenuto!B,,/!tenuto!B,,/!tenuto!_A,,/!tenuto!A,,/ | %40
 !//!!tenuto!G,,4 | !/!!tenuto!G,,!/!!tenuto!B,, !/!!tenuto!E,!/!!tenuto!F, | %42
 !//!!tenuto!G,2 !//!!tenuto!F,2 | !//!!tenuto!G,2 !//!!tenuto!E,2 | %44
 !//!!tenuto!A,2 !/!!tenuto!A,!/!!tenuto!G, | %45
 !tenuto!A,/!tenuto!A,/!tenuto!B,/!tenuto!B,/ !tenuto!C/!tenuto!C/!tenuto!D/!tenuto!D/ | %46
 !/!!tenuto!C!/!!tenuto!G, !/!!tenuto!B,!/!!tenuto!F, | %47
!>(! !/!!tenuto!C,!/!!tenuto!E, !/!!tenuto!G,,!/!!tenuto!D,!>)! | %48
!p! !tenuto!C,/!tenuto!C,/!tenuto!C,/!tenuto!C,/ !//!!tenuto!C,2 | %49
 !//!!tenuto!C,2 !/!!tenuto!D,!/!!tenuto!E, | !//!!tenuto!F,2 !/!!tenuto!E,!/!!tenuto!D, | %51
 !//!!tenuto!C,2 !/!!tenuto!D,!/!!tenuto!C, | !//!!tenuto!G,,2 !//!!tenuto!B,,2 | %53
 !//!!tenuto!B,,2 !//!!tenuto!E,2 | !//!!tenuto!C,4 | !//!!tenuto!C,2 !/!!tenuto!D,!/!!tenuto!E, | %56
 !tenuto!F,/!tenuto!F,/!tenuto!G,/!tenuto!G,/ !/!!tenuto!F,!/!!tenuto!C, | %57
 !//!!tenuto!E,2 !/!!tenuto!B,,!/!!tenuto!E, | !//!!tenuto!!4!_D,2 !//!!tenuto!!2!_G,2 | %59
!<(! !//!!tenuto!!2!^F,2 !//!!tenuto!!1!=E,2!<)! |!mf! !//!!tenuto!A,4 | %61
 !tenuto!A,/!tenuto!B,/!tenuto!B,/!tenuto!A,/ !tenuto!A,/!tenuto!B,/!tenuto!B,/!tenuto!F,/ | %62
 !tenuto!F,/!tenuto!A,/!tenuto!A,/!tenuto!=E,/ !//!!tenuto!G,2 | !//!!tenuto!G,2 !//!!tenuto!G,2 | %64
 !tenuto!G,/!tenuto!A,/!tenuto!A,/!tenuto!G,/ !tenuto!G,/!tenuto!A,/!tenuto!A,/!tenuto!=E,/ | %65
 !tenuto!=E,/!tenuto!G,/!tenuto!G,/!tenuto!D,/ !//!!tenuto!F,2 | %66
 !tenuto!F,/!tenuto!=E,/!tenuto!E,/!tenuto!C,/ !//!!tenuto!_E,2 | %67
 !tenuto!E,/!tenuto!D,/!tenuto!D,/!tenuto!B,,/ !//!!tenuto!D,2 | %68
!>(! !/!!tenuto!D,!/!!tenuto!A,, !/!!tenuto!D,!/!!tenuto!A,,!>)! | %69
!p! !tenuto!D,,/!tenuto!A,,/!tenuto!A,,/!tenuto!D,/ !tenuto!D,/!tenuto!A,/!tenuto!A,/!tenuto!D/ | %70
 !/!!tenuto!D!/!!tenuto!A, !/!!tenuto!D,!/!!tenuto!A,, | %71
!<(! !/!!tenuto!C,!/!!tenuto!D,, !/!!tenuto!B,,!/!!tenuto!A,,!<)! |!mf! !//!!tenuto!G,,4 | %73
 !/!!tenuto!G,,!/!!tenuto!B,, !/!!tenuto!A,,!/!!tenuto!C, | !//!!tenuto!B,,2 !//!!tenuto!G,,2 | %75
 !//!!tenuto!G,2 !//!!tenuto!D,2 | !//!!tenuto!C,2 !/!!tenuto!C,!/!!tenuto!B,, | %77
 !//!!tenuto!C,2 !/!!tenuto!C,!/!!tenuto!A,, | %78
 !tenuto!C,/!tenuto!C,/!tenuto!D,/!tenuto!D,/ !tenuto!C,/!tenuto!C,/!tenuto!B,,/!tenuto!B,,/ | %79
 !/!!tenuto!D,!/!!tenuto!C, !/!!tenuto!A,,!/!!tenuto!B,, | !//!!tenuto!G,,2 !//!!tenuto!G,2 | %81
 !//!!tenuto!G,2 !/!!tenuto!C!/!!tenuto!B, | %82
 !/!!tenuto!A,!/!!tenuto!B, !/!!tenuto!A,!/!!tenuto!G, | %83
 !/!!tenuto!A,!/!!tenuto!G, !/!!tenuto!D,!/!!tenuto!D | !//!!tenuto!C2 !/!!tenuto!C!/!!tenuto!D | %85
 !//!!tenuto!A,2 !/!!tenuto!A,!/!!tenuto!D | !/!!tenuto!C!/!!tenuto!A, !/!!tenuto!F,!/!!tenuto!E, | %87
 !/!!tenuto!D,!/!!tenuto!C, !/!!tenuto!B,,!/!!tenuto!A,, | !//!!tenuto!G,,4 | %89
 !/!!tenuto!G,,!/!!tenuto!B,, !/!!tenuto!A,,!/!!tenuto!C, | !//!!tenuto!G,,4 | %91
 !/!!tenuto!G,,!/!!tenuto!D, !/!!tenuto!C!/!!tenuto!D, | !//!!tenuto!G,,4 | %93
 !/!!tenuto!G,,!/!!tenuto!B,, !/!!tenuto!A,,!/!!tenuto!D, | %94
 !/!!tenuto!G,,!/!!tenuto!E, !/!!tenuto!D!/!!tenuto!E, | %95
 !/!!tenuto!C!/!!tenuto!E, !/!!tenuto!A,!/!!tenuto!D, | %96
 !/!!tenuto!G,!/!!tenuto!B,, !/!!tenuto!F,!/!!tenuto!A,, | %97
 !/!!tenuto!E,!/!!tenuto!G,, !/!!tenuto!D,!/!!tenuto!D,, | %98
 !tenuto!G,,/!tenuto!G,,/!tenuto!G,,/!tenuto!G,,/ !/!!tenuto!G,,!/!!tenuto!G,, | !//!!tenuto!G,,4 | %100
 (G,,/D,/B,/) z/ z2 |] %101

